X:1
T:The Vacant Chair
M:3/4
L:1/8
K:A
 E3/2 E/2| E3 EF E| E A3 E3/2 E/2| E3 EF E| B4 E3/2 E/2| c3 BA G| G F3 c3/2 B/2|\
 A3 GF G| A4 A3/2 A/2| B3 BA F| G B3 B3/2 e/2| ^d3 cB A| G4 B3/2 B/2|\
 B3 BA F| G B3 e3/2 e/2| ^d3 BA F| E4 E3/2 E/2| E3 EF E| E A3 E3/2 E/2|\
 E3 EF E| B4 E3/2 E/2| c3 BA G| G F3 c3/2 B/2| A3 GF G| A4||

